tipitek/img/app-card-icon-8.svg

<svg width="48" height="48" viewBox="0 0 48 48" fill="none" xmlns="http://www.w3.org/2000/svg">
<g clip-path="url(#clip0_1044_6101)">
<path d="M24.1375 42.2556C24.049 42.2898 23.951 42.2898 23.8625 42.2556C19.2672 40.4762 15.3782 37.7551 12.2918 34.1583C10.0482 31.5428 8.8125 28.0786 8.8125 24.404V11.355C8.8125 11.1773 8.92725 11.0258 9.08606 10.9905C11.998 10.3428 14.7397 9.06682 17.1221 7.63057C21.3508 5.08132 26.6493 5.08132 30.878 7.63057C33.2604 9.06682 36.0021 10.3428 38.9139 10.9905C39.0727 11.0258 39.1875 11.1773 39.1875 11.355V24.404C39.1875 28.0786 37.9518 31.5428 35.7079 34.1586C32.622 37.7548 28.7324 40.4761 24.1375 42.2556Z" fill="#FFD659"/>
<path d="M38.9153 10.9906C38.0523 10.7986 37.2046 10.5504 36.3764 10.2601V23.9429C36.3764 27.8279 35.1407 31.4905 32.8968 34.2561C30.2358 37.5346 26.9767 40.1247 23.1836 41.9823C23.4088 42.0755 23.6352 42.1671 23.8638 42.2556C23.9524 42.2897 24.0504 42.2897 24.1389 42.2556C28.7338 40.476 32.6234 37.7549 35.7093 34.1587C37.9532 31.5429 39.1889 28.0786 39.1889 24.4041V11.355C39.1889 11.1775 39.0741 11.0259 38.9153 10.9906Z" fill="#FFBD54"/>
<path d="M24.1126 39.2279C24.077 39.2432 24.0387 39.251 24 39.251C23.9613 39.251 23.923 39.2432 23.8874 39.2279C20.1597 37.6222 16.9811 35.3044 14.4263 32.3269C12.62 30.2211 11.625 27.4073 11.625 24.4042V13.4965C11.6251 13.4171 11.6505 13.3397 11.6974 13.2756C11.7444 13.2115 11.8105 13.164 11.8863 13.1399C14.0829 12.4343 16.3238 11.3961 18.5741 10.0394C20.2119 9.05246 22.0879 8.53102 24 8.53125C25.9131 8.53125 27.7894 9.05278 29.426 10.0393C31.6763 11.3959 33.9172 12.4343 36.1138 13.1398C36.1896 13.1639 36.2557 13.2114 36.3027 13.2755C36.3496 13.3396 36.375 13.417 36.3751 13.4964V24.4041C36.3751 27.4072 35.38 30.2212 33.5732 32.3275C31.0186 35.3046 27.8395 37.6225 24.1126 39.2279Z" fill="#4FB1F5"/>
<path d="M36.1119 13.1399C35.2674 12.8686 34.4163 12.5476 33.5606 12.1788V23.5675C33.5606 26.8876 32.5655 29.9986 30.7587 32.3274C28.6578 35.0342 26.1336 37.247 23.2305 38.9353C23.4476 39.0356 23.6659 39.1332 23.8855 39.228C23.9211 39.2432 23.9594 39.2511 23.9981 39.2511C24.0368 39.2511 24.0751 39.2432 24.1107 39.228C27.8376 37.6226 31.0167 35.3046 33.5712 32.3276C35.378 30.2211 36.3731 27.4072 36.3731 24.4041V13.4965C36.373 13.417 36.3477 13.3396 36.3007 13.2755C36.2538 13.2114 36.1876 13.1639 36.1119 13.1399Z" fill="#46A4E6"/>
<path d="M27.75 29.3438H20.25C19.7322 29.3438 19.3125 28.924 19.3125 28.4062V22.7812C19.3125 22.2635 19.7322 21.8438 20.25 21.8438H27.75C28.2678 21.8438 28.6875 22.2635 28.6875 22.7812V28.4062C28.6875 28.924 28.2678 29.3438 27.75 29.3438Z" fill="#FF2C5C"/>
<path d="M27.75 21.8438H24.9375C25.4553 21.8438 25.875 22.2635 25.875 22.7812V28.4062C25.875 28.924 25.4553 29.3438 24.9375 29.3438H27.75C28.2678 29.3438 28.6875 28.924 28.6875 28.4062V22.7812C28.6875 22.2635 28.2678 21.8438 27.75 21.8438Z" fill="#E62753"/>
<path d="M16.5938 47.2969C17.3704 47.2969 18 46.6673 18 45.8906C18 45.114 17.3704 44.4844 16.5938 44.4844C15.8171 44.4844 15.1875 45.114 15.1875 45.8906C15.1875 46.6673 15.8171 47.2969 16.5938 47.2969Z" fill="#FF2C5C"/>
<path d="M34.4062 3.51562C35.1829 3.51562 35.8125 2.88603 35.8125 2.10938C35.8125 1.33272 35.1829 0.703125 34.4062 0.703125C33.6296 0.703125 33 1.33272 33 2.10938C33 2.88603 33.6296 3.51562 34.4062 3.51562Z" fill="#FF2C5C"/>
<path d="M2.10938 17.7188C2.88603 17.7188 3.51562 17.0892 3.51562 16.3125C3.51562 15.5358 2.88603 14.9062 2.10938 14.9062C1.33272 14.9062 0.703125 15.5358 0.703125 16.3125C0.703125 17.0892 1.33272 17.7188 2.10938 17.7188Z" fill="#FF2C5C"/>
<path d="M4.28906 23.1562C5.06571 23.1562 5.69531 22.5267 5.69531 21.75C5.69531 20.9733 5.06571 20.3438 4.28906 20.3438C3.51241 20.3438 2.88281 20.9733 2.88281 21.75C2.88281 22.5267 3.51241 23.1562 4.28906 23.1562Z" fill="#FF2C5C"/>
<path d="M45.8906 23.9062C46.6673 23.9062 47.2969 23.2767 47.2969 22.5C47.2969 21.7233 46.6673 21.0938 45.8906 21.0938C45.114 21.0938 44.4844 21.7233 44.4844 22.5C44.4844 23.2767 45.114 23.9062 45.8906 23.9062Z" fill="#FF2C5C"/>
<path d="M43.7109 29.3438C44.4876 29.3438 45.1172 28.7142 45.1172 27.9375C45.1172 27.1608 44.4876 26.5312 43.7109 26.5312C42.9343 26.5312 42.3047 27.1608 42.3047 27.9375C42.3047 28.7142 42.9343 29.3438 43.7109 29.3438Z" fill="#FF2C5C"/>
<path d="M24 26.2969C24.7767 26.2969 25.4062 25.6673 25.4062 24.8906C25.4062 24.114 24.7767 23.4844 24 23.4844C23.2233 23.4844 22.5938 24.114 22.5938 24.8906C22.5938 25.6673 23.2233 26.2969 24 26.2969Z" fill="#685C79"/>
<path d="M45.8906 20.3906C44.974 20.3906 44.1924 20.9785 43.9022 21.7969H39.8906V20.9766C39.8906 20.5882 39.5759 20.2734 39.1875 20.2734C38.7991 20.2734 38.4844 20.5882 38.4844 20.9766V24.4042C38.4844 27.9108 37.3088 31.2125 35.1742 33.7009C32.1929 37.1753 28.4341 39.8169 24 41.5547C20.0358 40.0013 16.601 37.7181 13.79 34.7672C13.6613 34.6322 13.4843 34.5537 13.2979 34.5492C13.1114 34.5447 12.9308 34.6144 12.7958 34.743C12.6608 34.8717 12.5824 35.0487 12.5778 35.2351C12.5733 35.4216 12.643 35.6022 12.7717 35.7372C13.7407 36.7537 14.7832 37.6975 15.8906 38.5612V43.9024C15.0723 44.1926 14.4844 44.9741 14.4844 45.8908C14.4844 47.054 15.4307 48.0002 16.5938 48.0002C17.7568 48.0002 18.7031 47.054 18.7031 45.8908C18.7031 44.9742 18.1152 44.1926 17.2969 43.9024V39.5915C19.2265 40.9193 21.3345 42.0308 23.6082 42.9113C23.8601 43.0092 24.1396 43.0093 24.3915 42.9114C29.0946 41.09 33.0815 38.2993 36.2415 34.6166C37.7034 32.9123 38.7569 30.8669 39.3456 28.6407H41.7225C42.0128 29.4591 42.7943 30.047 43.7109 30.047C44.874 30.047 45.8203 29.1007 45.8203 27.9376C45.8203 26.7744 44.874 25.8282 43.7109 25.8282C42.7943 25.8282 42.0128 26.4161 41.7225 27.2345H39.6515C39.8111 26.2995 39.8911 25.3527 39.8906 24.4043V23.2031H43.9022C44.1924 24.0215 44.974 24.6094 45.8906 24.6094C47.0537 24.6094 48 23.6632 48 22.5C48 21.3368 47.0537 20.3906 45.8906 20.3906ZM16.5938 46.5938C16.206 46.5938 15.8906 46.2784 15.8906 45.8906C15.8906 45.5029 16.206 45.1875 16.5938 45.1875C16.9815 45.1875 17.2969 45.5029 17.2969 45.8906C17.2969 46.2784 16.9815 46.5938 16.5938 46.5938ZM43.7109 27.2344C44.0987 27.2344 44.4141 27.5497 44.4141 27.9375C44.4141 28.3253 44.0987 28.6406 43.7109 28.6406C43.3232 28.6406 43.0078 28.3253 43.0078 27.9375C43.0078 27.5497 43.3232 27.2344 43.7109 27.2344ZM45.8906 23.2031C45.5029 23.2031 45.1875 22.8878 45.1875 22.5C45.1875 22.1122 45.5029 21.7969 45.8906 21.7969C46.2784 21.7969 46.5938 22.1122 46.5938 22.5C46.5938 22.8878 46.2784 23.2031 45.8906 23.2031ZM9.51562 24.4042V11.6134C12.0947 11.0035 14.7743 9.86709 17.4851 8.23284C21.5036 5.81034 26.4963 5.81025 30.515 8.23284C31.721 8.95988 32.9208 9.58781 34.1083 10.1153C34.1215 10.1214 34.1349 10.1274 34.1485 10.1328C35.6165 10.7821 37.0657 11.2778 38.4843 11.6134V17.9687C38.4843 18.357 38.799 18.6718 39.1874 18.6718C39.5758 18.6718 39.8905 18.357 39.8905 17.9687V11.355C39.8905 10.8523 39.5439 10.4103 39.0666 10.3042C37.7752 10.0169 36.4527 9.58566 35.1093 9.0165V4.09781C35.9276 3.80756 36.5155 3.02606 36.5155 2.10938C36.5156 0.946219 35.5693 0 34.4062 0C33.2432 0 32.2969 0.946219 32.2969 2.10938C32.2969 3.02597 32.8848 3.80756 33.7031 4.09781V8.37441C32.8881 7.97494 32.0667 7.52625 31.241 7.02853C26.7745 4.33603 21.2253 4.33612 16.759 7.02853C14.0814 8.64262 11.4485 9.74475 8.93334 10.3043C8.45588 10.4104 8.10928 10.8524 8.10928 11.3551V15.6094H4.09781C3.80756 14.791 3.02597 14.2031 2.10938 14.2031C0.946312 14.2031 0 15.1493 0 16.3125C0 17.4757 0.946312 18.4219 2.10938 18.4219C3.02597 18.4219 3.80756 17.834 4.09781 17.0156H8.10938V21.0469H6.2775C5.98725 20.2285 5.20566 19.6406 4.28906 19.6406C3.126 19.6406 2.17969 20.5868 2.17969 21.75C2.17969 22.9132 3.126 23.8594 4.28906 23.8594C5.20566 23.8594 5.98725 23.2715 6.2775 22.4531H8.10938V24.4042C8.10938 27.7743 9.08259 30.935 10.9237 33.5444C10.9887 33.6366 11.0748 33.7118 11.1749 33.7636C11.275 33.8154 11.3862 33.8424 11.4989 33.8423C11.6277 33.8421 11.754 33.8066 11.864 33.7396C11.974 33.6727 12.0635 33.5767 12.1227 33.4624C12.1819 33.348 12.2085 33.2196 12.1997 33.0911C12.1909 32.9626 12.147 32.839 12.0728 32.7337C10.3999 30.3627 9.51562 27.4824 9.51562 24.4042ZM34.4062 1.40625C34.794 1.40625 35.1094 1.72162 35.1094 2.10938C35.1094 2.49712 34.794 2.8125 34.4062 2.8125C34.0185 2.8125 33.7031 2.49712 33.7031 2.10938C33.7031 1.72162 34.0185 1.40625 34.4062 1.40625ZM2.10938 17.0156C1.72162 17.0156 1.40625 16.7003 1.40625 16.3125C1.40625 15.9248 1.72162 15.6094 2.10938 15.6094C2.49712 15.6094 2.8125 15.9248 2.8125 16.3125C2.8125 16.7003 2.49712 17.0156 2.10938 17.0156ZM4.28906 22.4531C3.90131 22.4531 3.58594 22.1378 3.58594 21.75C3.58594 21.3622 3.90131 21.0469 4.28906 21.0469C4.67681 21.0469 4.99219 21.3622 4.99219 21.75C4.99219 22.1378 4.67681 22.4531 4.28906 22.4531Z" fill="black"/>
<path d="M16.2649 12.108C16.3476 12.0671 16.4215 12.0102 16.4823 11.9407C16.5431 11.8713 16.5896 11.7905 16.6192 11.703C16.6488 11.6155 16.6608 11.5231 16.6547 11.431C16.6485 11.3389 16.6243 11.2489 16.5833 11.1661C16.5006 10.999 16.3549 10.8715 16.1783 10.8118C16.0017 10.752 15.8085 10.7649 15.6413 10.8475C14.3107 11.5057 12.9749 12.0517 11.6711 12.4704C11.4534 12.5397 11.2634 12.6765 11.1287 12.861C10.994 13.0455 10.9215 13.2681 10.9219 13.4965V24.4042C10.9219 27.5752 11.9769 30.5514 13.8926 32.7847C16.515 35.8409 19.7841 38.226 23.6094 39.8738C23.7328 39.9268 23.8657 39.954 23.9999 39.9539C24.1332 39.9539 24.2665 39.9272 24.3907 39.8737C28.2157 38.2261 31.4846 35.8413 34.1068 32.7854C36.0229 30.5516 37.0781 27.5752 37.0781 24.4042V13.4965C37.0781 13.0267 36.777 12.6144 36.3289 12.4704C34.1867 11.7824 31.9864 10.7618 29.789 9.43716C28.0417 8.38417 26.0402 7.82785 24.0001 7.82813C21.9599 7.82788 19.9583 8.38426 18.2109 9.43734L18.0614 9.52706C17.9821 9.57435 17.9129 9.63679 17.8577 9.71083C17.8025 9.78487 17.7625 9.86906 17.7398 9.95858C17.7172 10.0481 17.7124 10.1412 17.7257 10.2326C17.7391 10.3239 17.7703 10.4118 17.8176 10.4911C17.8648 10.5704 17.9273 10.6396 18.0013 10.6948C18.0753 10.75 18.1595 10.79 18.249 10.8127C18.3385 10.8353 18.4316 10.8401 18.523 10.8268C18.6144 10.8134 18.7022 10.7822 18.7815 10.7349C18.8335 10.7039 18.8854 10.6728 18.9371 10.6416C20.4653 9.72065 22.2158 9.23412 24.0001 9.23438C25.7853 9.23438 27.5361 9.72094 29.0631 10.6416C31.2764 11.9758 33.4986 13.016 35.672 13.7353V24.4041C35.672 27.2393 34.7371 29.8907 33.0397 31.8697C30.596 34.7174 27.5552 36.951 24.0001 38.5102C20.4446 36.9508 17.4038 34.7171 14.9601 31.869C13.2628 29.8905 12.3282 27.2393 12.3282 24.4041V13.7353C13.6255 13.3058 14.9488 12.7589 16.2649 12.108Z" fill="black"/>
<path d="M24 16.4531C22.0614 16.4531 20.4844 18.0302 20.4844 19.9688V21.1406H20.25C19.3454 21.1406 18.6094 21.8767 18.6094 22.7812V28.4062C18.6094 29.3108 19.3454 30.0469 20.25 30.0469H27.75C28.6546 30.0469 29.3906 29.3108 29.3906 28.4062V22.7812C29.3906 21.8767 28.6546 21.1406 27.75 21.1406H27.5156V19.9688C27.5156 18.0302 25.9386 16.4531 24 16.4531ZM21.8906 19.9688C21.8906 18.8056 22.8369 17.8594 24 17.8594C25.1631 17.8594 26.1094 18.8056 26.1094 19.9688V21.1406H21.8906V19.9688ZM27.9844 22.7812V28.4062C27.9844 28.5354 27.8793 28.6406 27.75 28.6406H20.25C20.1879 28.6406 20.1283 28.6158 20.0844 28.5719C20.0404 28.528 20.0157 28.4684 20.0156 28.4062V22.7812C20.0156 22.6521 20.1207 22.5469 20.25 22.5469H27.75C27.8793 22.5469 27.9844 22.6521 27.9844 22.7812Z" fill="black"/>
<path d="M24 22.7812C22.8369 22.7812 21.8906 23.7275 21.8906 24.8906C21.8906 25.8072 22.4785 26.5888 23.2969 26.8791V27.7031C23.2969 28.0914 23.6116 28.4062 24 28.4062C24.3884 28.4062 24.7031 28.0914 24.7031 27.7031V26.8791C25.5215 26.5888 26.1094 25.8073 26.1094 24.8906C26.1094 23.7275 25.1631 22.7812 24 22.7812ZM24 25.5938C23.6122 25.5938 23.2969 25.2784 23.2969 24.8906C23.2969 24.5029 23.6122 24.1875 24 24.1875C24.3877 24.1875 24.7031 24.5029 24.7031 24.8906C24.7031 25.2784 24.3877 25.5938 24 25.5938Z" fill="black"/>
</g>
<defs>
<clipPath id="clip0_1044_6101">
<rect width="48" height="48" fill="white"/>
</clipPath>
</defs>
</svg>

<svg width="48" height="48" fill="none" xmlns="http://www.w3.org/2000/svg"><g clip-path="url(#clip0_1044_6101)"><path d="M24.137 42.256a.381.381 0 0 1-.274 0c-4.596-1.78-8.485-4.5-11.571-8.098-2.244-2.615-3.48-6.08-3.48-9.754V11.355c0-.178.115-.33.274-.364 2.912-.648 5.654-1.924 8.036-3.36a13.327 13.327 0 0 1 13.756 0c2.382 1.436 5.124 2.712 8.036 3.36a.365.365 0 0 1 .273.364v13.049c0 3.675-1.235 7.139-3.48 9.755-3.085 3.596-6.975 6.317-11.57 8.097z" fill="#FFD659"/><path d="M38.915 10.99a22.37 22.37 0 0 1-2.539-.73v13.683c0 3.885-1.235 7.547-3.48 10.313a28.604 28.604 0 0 1-9.712 7.726c.225.093.451.185.68.274a.383.383 0 0 0 .275 0c4.595-1.78 8.484-4.501 11.57-8.097 2.244-2.616 3.48-6.08 3.48-9.755V11.355a.366.366 0 0 0-.274-.364z" fill="#FFBD54"/><path d="M24.113 39.228a.285.285 0 0 1-.226 0c-3.727-1.606-6.906-3.924-9.46-6.901-1.807-2.106-2.802-4.92-2.802-7.923V13.496a.375.375 0 0 1 .261-.356c2.197-.706 4.438-1.744 6.688-3.1a10.51 10.51 0 0 1 10.852 0c2.25 1.356 4.491 2.394 6.688 3.1a.375.375 0 0 1 .261.356v10.908c0 3.003-.995 5.817-2.802 7.924-2.554 2.977-5.733 5.294-9.46 6.9z" fill="#4FB1F5"/><path d="M36.112 13.14a28.395 28.395 0 0 1-2.551-.961v11.388c0 3.32-.995 6.432-2.802 8.76a26.076 26.076 0 0 1-7.529 6.608c.218.1.436.198.655.293a.287.287 0 0 0 .226 0c3.727-1.605 6.906-3.923 9.46-6.9 1.807-2.107 2.802-4.92 2.802-7.924V13.496a.374.374 0 0 0-.261-.356z" fill="#46A4E6"/><path d="M27.75 29.344h-7.5a.938.938 0 0 1-.938-.938v-5.625c0-.517.42-.937.938-.937h7.5c.518 0 .938.42.938.937v5.625c0 .518-.42.938-.938.938z" fill="#FF2C5C"/><path d="M27.75 21.844h-2.813c.518 0 .938.42.938.937v5.625c0 .518-.42.938-.938.938h2.813c.518 0 .938-.42.938-.938v-5.625a.937.937 0 0 0-.938-.937z" fill="#E62753"/><path d="M16.594 47.297a1.406 1.406 0 1 0 0-2.813 1.406 1.406 0 0 0 0 2.813zM34.406 3.516a1.406 1.406 0 1 0 0-2.813 1.406 1.406 0 0 0 0 2.813zM2.11 17.719a1.406 1.406 0 1 0 0-2.813 1.406 1.406 0 0 0 0 2.813zM4.29 23.156a1.406 1.406 0 1 0 0-2.812 1.406 1.406 0 0 0 0 2.812zM45.89 23.906a1.406 1.406 0 1 0 0-2.812 1.406 1.406 0 0 0 0 2.812zM43.71 29.344a1.406 1.406 0 1 0 .001-2.813 1.406 1.406 0 0 0 0 2.813z" fill="#FF2C5C"/><path d="M24 26.297a1.406 1.406 0 1 0 0-2.812 1.406 1.406 0 0 0 0 2.812z" fill="#685C79"/><path d="M45.89 20.39c-.916 0-1.698.588-1.988 1.407h-4.011v-.82a.703.703 0 1 0-1.407 0v3.427c0 3.507-1.175 6.808-3.31 9.297-2.981 3.474-6.74 6.116-11.174 7.854-3.964-1.554-7.399-3.837-10.21-6.788a.703.703 0 0 0-1.018.97 28.661 28.661 0 0 0 3.119 2.824v5.341a2.113 2.113 0 0 0-1.407 1.989c0 1.163.947 2.11 2.11 2.11 1.163 0 2.11-.947 2.11-2.11 0-.917-.589-1.698-1.407-1.989v-4.31a30.585 30.585 0 0 0 6.311 3.32c.252.097.532.097.784 0 4.703-1.822 8.69-4.613 11.85-8.295 1.461-1.705 2.515-3.75 3.104-5.976h2.377a2.113 2.113 0 0 0 1.988 1.406c1.163 0 2.11-.946 2.11-2.11 0-1.163-.947-2.109-2.11-2.109-.917 0-1.698.588-1.989 1.407h-2.07c.16-.936.24-1.882.239-2.83v-1.202h4.011a2.113 2.113 0 0 0 1.989 1.406c1.163 0 2.109-.946 2.109-2.109s-.946-2.11-2.11-2.11zM16.595 46.595a.704.704 0 1 1 .001-1.408.704.704 0 0 1-.001 1.408zm27.117-19.36a.704.704 0 1 1-.001 1.408.704.704 0 0 1 0-1.408zm2.18-4.03a.704.704 0 1 1 .001-1.409.704.704 0 0 1-.001 1.408zm-36.375 1.2v-12.79c2.579-.61 5.258-1.747 7.97-3.381a12.589 12.589 0 0 1 13.029 0 32.634 32.634 0 0 0 3.633 1.9 24.947 24.947 0 0 0 4.336 1.48v6.356a.703.703 0 1 0 1.407 0v-6.614c0-.503-.347-.945-.824-1.05a22.947 22.947 0 0 1-3.958-1.288v-4.92a2.113 2.113 0 0 0 1.407-1.988C36.516.946 35.569 0 34.406 0c-1.163 0-2.11.946-2.11 2.11 0 .916.589 1.698 1.407 1.988v4.276c-.815-.4-1.636-.848-2.462-1.345a13.992 13.992 0 0 0-14.482 0c-2.678 1.614-5.31 2.716-7.826 3.275a1.074 1.074 0 0 0-.824 1.051v4.254H4.098a2.113 2.113 0 0 0-1.989-1.406C.946 14.203 0 15.15 0 16.313c0 1.163.946 2.109 2.11 2.109.916 0 1.698-.588 1.988-1.406h4.011v4.03H6.277a2.113 2.113 0 0 0-1.988-1.405c-1.163 0-2.11.946-2.11 2.109s.947 2.11 2.11 2.11c.917 0 1.698-.588 1.989-1.407h1.831v1.951c0 3.37.974 6.531 2.815 9.14a.702.702 0 1 0 1.149-.81c-1.673-2.371-2.557-5.252-2.557-8.33zm24.89-22.998a.704.704 0 1 1-.001 1.408.704.704 0 0 1 .001-1.408zM2.11 17.016a.704.704 0 1 1 .002-1.408.704.704 0 0 1-.002 1.408zm2.18 5.437a.704.704 0 1 1 .001-1.408.704.704 0 0 1 0 1.408z" fill="#000"/><path d="M16.265 12.108a.703.703 0 0 0-.624-1.26 29.014 29.014 0 0 1-3.97 1.622 1.075 1.075 0 0 0-.75 1.026v10.908c0 3.171 1.056 6.147 2.972 8.38 2.622 3.057 5.891 5.442 9.716 7.09a.988.988 0 0 0 .782 0c3.825-1.648 7.094-4.033 9.716-7.089 1.916-2.233 2.971-5.21 2.971-8.38V13.495c0-.47-.301-.882-.75-1.026-2.141-.688-4.342-1.708-6.539-3.033a11.212 11.212 0 0 0-11.578 0l-.15.09a.704.704 0 0 0 .72 1.208l.156-.093a9.806 9.806 0 0 1 10.126 0c2.213 1.334 4.436 2.374 6.609 3.093v10.67c0 2.834-.935 5.486-2.632 7.465-2.444 2.847-5.485 5.081-9.04 6.64-3.555-1.56-6.596-3.793-9.04-6.641-1.697-1.979-2.632-4.63-2.632-7.465V13.735c1.298-.43 2.62-.976 3.937-1.627z" fill="#000"/><path d="M24 16.453a3.52 3.52 0 0 0-3.516 3.516v1.172h-.234c-.905 0-1.64.736-1.64 1.64v5.625c0 .905.735 1.64 1.64 1.64h7.5c.905 0 1.64-.735 1.64-1.64v-5.625c0-.904-.735-1.64-1.64-1.64h-.234v-1.172A3.52 3.52 0 0 0 24 16.453zm-2.11 3.516c0-1.163.947-2.11 2.11-2.11 1.163 0 2.11.947 2.11 2.11v1.172h-4.22v-1.172zm6.094 2.812v5.625c0 .13-.105.235-.234.235h-7.5a.234.234 0 0 1-.234-.235v-5.625c0-.129.105-.234.234-.234h7.5c.13 0 .234.105.234.234z" fill="#000"/><path d="M24 22.781c-1.163 0-2.11.947-2.11 2.11 0 .916.588 1.698 1.407 1.988v.824a.703.703 0 1 0 1.406 0v-.824a2.113 2.113 0 0 0 1.406-1.988c0-1.163-.946-2.11-2.109-2.11zm0 2.813a.704.704 0 1 1 .001-1.408.704.704 0 0 1-.001 1.408z" fill="#000"/></g><defs><clipPath id="clip0_1044_6101"><path fill="#fff" d="M0 0h48v48H0z"/></clipPath></defs></svg>
